!!!COM: Marotta, Erasmo
!!!CDT:
!!!PTL: Aminta musicale. Il primo libro de madrigali a cinque voci
!!!PPP: Venice
!!!PPR: Angelo Gardano
!!!PDT: 1600
!!!PUB-format:
!!!RISM: M 714
!!!OTL:	A l'ombra di un bel faggio Silvia e Filli
!!!act: I
!!!scene: 2
!!!verse: 441
!!!AGN: 
!!!SCT: Tam1020441a
!!!SCA: Tam1020441a
!!!original-voices: 5
!!!extant-voices: 3
!!!complete: N
!!!final: (G)C
**kern	**text	**kern	**text	**kern	**text
*part3	*part3	*part2	*part2	*part1	*part1
*staff3	*staff3	*staff2	*staff2	*staff1	*staff1
*I"Basso	*	*I"Quinto	*	*I"Canto	*
*I'B	*	*I'V	*	*I'C	*
*oclefC4	*	*oclefG2	*	*oclefG2	*
*clefGv2	*	*clefG2	*	*clefG2	*
*k[]	*	*k[]	*	*k[]	*
*omet(C)	*	*omet(C)	*	*omet(C)	*
*M4/2	*	*M4/2	*	*M4/2	*
=1	=1	=1	=1	=1	=1
!!LO:TX:a:t=[Prima parte]
2G	A	0r	.	1r	.
4G	l'om-	.	.	.	.
4G	-bra	.	.	.	.
4F	d'un	.	.	4r	.
4D	bel	.	.	4ff	A
2F	fag-	.	.	4ff	l'om-
.	.	.	.	4ff	-bra
=2	=2	=2	=2	=2	=2
4C	-gio	0r	.	4ee	d'un
2c	Sil-	.	.	4cc	bel
.	.	.	.	2dd	fag-
4B	-via e	.	.	.	.
2A	Fil-	.	.	4cc	-gio
.	.	.	.	2ff	Sil-
2G	-li,	.	.	.	.
.	.	.	.	4ee	-via e
=3	=3	=3	=3	=3	=3
0r	.	4r	.	2dd	Fil-
.	.	4g	A	.	.
.	.	4g	l'om-	4cc	-li,
.	.	4g	-bra	4ee	A
.	.	4a	d'un	4ee	l'om-
.	.	4b	bel	4dd	-bra
.	.	2cc	fag-	4ee	d'un
.	.	.	.	4cc	bel
=4	=4	=4	=4	=4	=4
4r	.	2b	-gio	2dd	fag-
2G	Sil-	.	.	.	.
.	.	4r	.	2dd	-gio
4F	-via e	2dd	Sil-	.	.
2E	Fil-	.	.	2r	.
.	.	4cc#X	-via e	.	.
2D	-li,	2dd	Fil-	4r	.
.	.	.	.	[4ff	Sil-
=5	=5	=5	=5	=5	=5
2r	.	2g	-li	4ff]	.
.	.	.	.	4ee	-via e
4r	.	2r	.	4cc	Fil-
2F	<Sil-	.	.	4.dd	.
.	.	1r	.	.	.
.	.	.	.	8cc	.
4E	-via e	.	.	2cc	.
2G	Fil-	.	.	.	.
.	.	.	.	4b	.
=6	=6	=6	=6	=6	=6
1C	-li>	2r	.	2cc	-li
.	.	2ee	Se-	2cc	Se-
1r	.	4ee	-de-	4cc	-de-
.	.	4ee	-an'un	4cc	-an'un
.	.	2ff	gior-	2dd	gior-
=7	=7	=7	=7	=7	=7
0r	.	4ee	-no et	4cc	-no et
.	.	2gg	io	2ee	io
.	.	4ff	con	4ff	con
.	.	4ee	lo-	4gg	lo-
.	.	2cc	-ro in-	4ee	-ro in-
.	.	.	.	2ff	-sie-
.	.	4b	-sie-	.	.
=8	=8	=8	=8	=8	=8
2r	.	1cc	-me,	4ee	-me,
.	.	.	.	4gg	et
2c	Se-	.	.	4gg	io
.	.	.	.	4ff	con
4c	-de-	2cc	<Se-	4ee	lo-
4c	-an'un	.	.	2cc	-ro in-
2d	gior-	4ff	-de-	.	.
.	.	4dd	-an'un	4b	-sie-
=9	=9	=9	=9	=9	=9
4c	-no et	4.ee	gior-	4cc	-me,
2c	io	.	.	4cc	<et
.	.	8ee	-no et	.	.
.	.	4ee	io	4cc	io
4G	con	4gg	con	4b-X	con
4B-X	lo-	4dd	lo-	4b-X	lo-
4c	-ro in-	4ee	-ro in-	4g	-ro in-
2G	-sie-	[2gg	-sie-	2g	-sie-
=10	=10	=10	=10	=10	=10
1G	-me,	2gg]	.	2g	-me,>
.	.	2dd	-me,>	4r	.
.	.	.	.	4b	Quan-
1r	.	2r	.	4a	-do un'
.	.	.	.	4.b	a-
.	.	2dd	Quan-	.	.
.	.	.	.	8a	-pe in-
.	.	.	.	4b	-ge-
=11	=11	=11	=11	=11	=11
0r	.	2cc	-do un'	4g	-gno-
.	.	.	.	4a	-sa
.	.	4cc	a-	4g	Che
.	.	8cc	-pe in-	4a	co-
.	.	8cc	-ge-	.	.
.	.	4.b	-gno-	4f#X	-glien-
.	.	.	.	4g	-do,
.	.	8b	-sa	.	.
.	.	4.a	Che	4e	Che
.	.	.	.	4f#X	co-
.	.	8a	co-	.	.
=12	=12	=12	=12	=12	=12
1r	.	4dd	-glien-	4g	-glien-
.	.	8dd	-do	8g	-do
.	.	8dd	sen	8g	sen
.	.	4cc	gi-	4g	gi-
.	.	4a	-va'l	4f#X	-va'l
2r	.	1b	mel,	[1g	mel,
4G	Per	.	.	.	.
4G	quei	.	.	.	.
=13	=13	=13	=13	=13	=13
2c	pra-	0r	.	1g]	.
4c	-ti	.	.	.	.
4d	fio-	.	.	.	.
4e	-ri-	.	.	2r	.
4c	-ti,	.	.	.	.
4e	Per	.	.	4gg	Per
4f	quei	.	.	4ff	quei
=14	=14	=14	=14	=14	=14
4.g	pra-	2r	.	4ee	pra-
.	.	.	.	8ee	-ti
8f	.	.	.	8ff	fio-
8eL	.	4g	Per	8ggL	-ri-
8dJ	.	.	.	8ff	.
4.c	.	4g	quei	8ee	.
.	.	.	.	8ddJ	.
.	.	2cc	pra-	8eeL	.
8BL	.	.	.	8dd	.
8A	.	.	.	8cc	.
8GJ	.	.	.	8bJ	.
2F	.	4cc	-ti	2a	-ti,
.	.	4dd	fio-	.	.
=15	=15	=15	=15	=15	=15
4C	-ti	8eeL	-ri-	4cc	Per
.	.	8dd	.	.	.
4C	fio-	8cc	.	8ee	quei
.	.	8ddJ	.	8dd	pra-
2C	-ri-	8eeL	.	4cc	-ti
.	.	8dd	.	.	.
.	.	8ee	.	8bL	fio-
.	.	8ccJ	.	8aJ	.
1G	-ti,	2dd	.	2b	-ri-
.	.	2dd	-ti,	2b	-ti,
=16	=16	=16	=16	=16	=16
1r	.	0r	.	0r	.
4C	A	.	.	.	.
4C	le	.	.	.	.
4D	guan-	.	.	.	.
8D	-cie	.	.	.	.
8D	di	.	.	.	.
=17	=17	=17	=17	=17	=17
8E	Fil-	1r	.	4g	A
8E	-li-	.	.	.	.
8E	-de	.	.	4g	le
8E	vo-	.	.	.	.
2F#X	-lan-	.	.	4a	guan-
.	.	.	.	8a	-cie
.	.	.	.	8a	di
4G	-do,	2r	.	8b	Fil-
.	.	.	.	8b	-li-
8G	A	.	.	8b	-de
8G	le	.	.	8b	vo-
2E	guan-	4g	A	2cc#X	-lan-
.	.	4g	le	.	.
=18	=18	=18	=18	=18	=18
4D	-cie,	4a	guan-	2dd	-do,
8d	A	8a	-cie	.	.
8d	le	8a	di	.	.
4c	guan-	8cc	Fil-	2r	.
.	.	8cc	-li-	.	.
8c	-cie	8g	-de	.	.
8c	ver-	8g	vo-	.	.
8B	-mi-	2g	-lan-	4r	.
8B	-glie	.	.	.	.
8B	co-	.	.	4dd	di
8B	-me	.	.	.	.
2A	ro-	2a	.	8cc	Fil-
.	.	.	.	8dd	-li-
.	.	.	.	8ee	-de
.	.	.	.	8cc	vo-
=19	=19	=19	=19	=19	=19
4G	-sa,	4b	-do,	4dd	-lan-
8G	A	4g	vo-	4b	-do,
8G	le	.	.	.	.
4F	guan-	2a	-lan-	2r	.
8F	-cie	.	.	.	.
8F	ver-	.	.	.	.
8E	-mi-	4b	-do,	4g	A
8E	-glie	.	.	.	.
8E	co-	8gg	A	4g	le
8E	-me	8gg	le	.	.
2D	ro-	4ff	guan-	4a	guan-
.	.	8ff	-cie	8a	-cie
.	.	8ff	ver-	8b	ver-
=20	=20	=20	=20	=20	=20
2C	-sa,	8ee	-mi-	8cc	-mi-
.	.	8dd	-glie	8b	-glie
.	.	8ee	co-	8cc	co-
.	.	8cc	-me	8a	-me
2r	.	2dd	ro-	2b	ro-
2r	.	2cc	-sa,	1cc	-sa,
2C	Le	2g	Le	.	.
=21	=21	=21	=21	=21	=21
4.F	mor-	4.a	mor-	1r	.
8E	-se e	8g	-se e	.	.
8A	le	8a	le	.	.
8G	ri-	8b	ri-	.	.
2c	-mor-	2cc	-mor-	.	.
.	.	.	.	2r	.
4.A	-se a-	4.cc	-se a-	.	.
.	.	.	.	4r	.
8G	-vi-	8dd	-vi-	.	.
4E	-da-	4ee	-da-	4g	Le
=22	=22	=22	=22	=22	=22
1F	-men-	2cc	-men-	4.a	mor-
.	.	.	.	8f	-se e
.	.	2ff	.	8a	le
.	.	.	.	8b	ri-
.	.	.	.	2cc	-mor-
1C	-te,	2ee	-te,	.	.
.	.	.	.	8cc	-se,
.	.	.	.	8cc	<Le
.	.	2r	.	4.ee	mor-
.	.	.	.	8cc	-se e
=23	=23	=23	=23	=23	=23
4r	.	4r	.	8ee	le
.	.	.	.	8ff	ri-
4C	<Le	4cc	Le	2gg	-mor-
4.c	mor-	4.ee	mor-	.	.
.	.	.	.	4ee	-se>
8A	-se e	8cc#X	-se e	.	.
8d	le	8dd	le	4r	.
8c	ri-	8ee	ri-	.	.
2f	-mor-	2ff	-mor-	4.cc	a-
.	.	.	.	8cc	-vi-
[4B-i	-se a-	[4dd	-se a-	4b-X	-da-
=24	=24	=24	=24	=24	=24
4B-iy]	.	4dd]	.	2b-X	-men-
4B-i	-vi-	4dd	-vi-	.	.
2d	-da-	2ff	-da-	2a	-te:
2A	-men-	2ee	-men-	1r	.
2D	-te:>	2dd	-te,	.	.
=25	=25	=25	=25	=25	=25
8r	.	0r	.	0r	.
8F	e	.	.	.	.
8A	le	.	.	.	.
8B	ri-	.	.	.	.
4c	-mor-	.	.	.	.
4F	-se a-	.	.	.	.
4G	-vi-	.	.	.	.
4A	-da-	.	.	.	.
4F	-men-	.	.	.	.
4G	.	.	.	.	.
=26	=26	=26	=26	=26	=26
1C	-te:	1r	.	1r	.
2E	Ch'al-	2b	Ch'al-	2g#X	Ch'al-
4E	-la	4b	-la	4g#X	-la
4E	si-	4b	si-	4g#X	si-
=27	=27	=27	=27	=27	=27
4E	-mi-	4b	-mi-	4g#X	-mi-
4E	-li-	4b	-li-	4g#X	-li-
2.E	-tu-	2.b	-tu-	2.g#X	-tu-
4E	-di-	4b	-di-	4g#X	-di-
4A	-ne in-	4cc	-ne in-	4a	-ne in-
4A	-gan-	4cc	-gan-	4a	-gan-
=28	=28	=28	=28	=28	=28
2G	-na-	2dd	-na-	2b	-na-
2G	-ta	4dd	-ta	4b	-ta
.	.	2dd	For-	2b	For-
1r	.	.	.	.	.
.	.	4dd	-se un	4b	-se un
.	.	2ee	fior	2cc	fior
=29	=29	=29	=29	=29	=29
0r	.	4dd	le	4b	le
.	.	4cc	cre-	4a	cre-
.	.	2b	-de-	2g#X	-de-
.	.	4a	-te.	4a	-te.
.	.	4cc	A-	4ee	A-
.	.	4cc	-lo-	4ee	-lo-
.	.	4cc	-ra	4cc	-ra
=30	=30	=30	=30	=30	=30
0r	.	2b	Fil-	2dd	Fil-
.	.	2b	-li	2dd	-li
.	.	4b	Co-	1r	.
.	.	4cc	-min-	.	.
.	.	4dd	-ciò a	.	.
.	.	[4ee	la-	.	.
=31	=31	=31	=31	=31	=31
0r	.	4ee]	.	0r	.
.	.	4dd	-men-	.	.
.	.	4ee	-tar-	.	.
.	.	4dd	-si im-	.	.
.	.	4ee	-pa-	.	.
.	.	4gg	-zi-	.	.
.	.	2ee	-en-	.	.
=32	=32	=32	=32	=32	=32
4G	Co-	2dd	-te,	2r	.
4G	-min-	.	.	.	.
2G	-ciò a	4g	Co-	4b	Co-
.	.	4a	-min-	4cc	-min-
2G	la-	4b	-ciò a	4dd	-ciò a
.	.	2cc	la-	2ee	la-
2G	-men-	.	.	.	.
.	.	4b	-men-	4dd	-men-
=33	=33	=33	=33	=33	=33
4c	-tar-	4cc	-tar-	4ee	-tar-
4B	-si im-	4dd	-si im-	4dd	-si im-
4c	-pa-	4ee	-pa-	4cc	-pa-
4d	-zi-	4ff	-zi-	4b	-zi-
*lig	*	*	*	*	*
1c	-en-	1ee	-en-	2cc	-en-
.	.	.	.	2g	-te
=34	=34	=34	=34	=34	=34
1G	.	2dd	-te	4gg	De
*Xlig	*	*	*	*	*
.	.	.	.	4ff	l'a-
.	.	2.gg	De	4ee	-cu-
.	.	.	.	8dd	-ta
.	.	.	.	8cc	pun-
[1G	-te	.	.	2b	-tu-
.	.	4ff	l'a-	.	.
.	.	4ee	-cu-	2cc	.
.	.	8dd	-ta	.	.
.	.	8cc	pun-	.	.
=35	=35	=35	=35	=35	=35
2G]	.	2b	-tu-	2dd	-ra,
4c	De	2cc	-ra,	4ee	De
4B	l'a-	.	.	4dd	l'a-
4A	-cu-	2.ee	<De	4cc	-cu-
8G	-ta	.	.	8b	-ta
8F	pun-	.	.	8a	pun-
[2E	-tu-	.	.	4.b	-tu-
.	.	4dd	l'a-	.	.
.	.	.	.	8a	.
=36	=36	=36	=36	=36	=36
2E]	.	4cc	-cu-	8g#iL	.
.	.	.	.	8f#X	.
.	.	8b	-ta	8g#i	.
.	.	8a	pun-	8aJ	.
2E	-ra,	2g#X	-tu-	2b	.
4e	De	2a	-ra,	2cc	-ra,
4d	l'a-	.	.	.	.
4c	-cu-	2cc	De	[2gnXi	<De
8B	-ta	.	.	.	.
8A	pun-	.	.	.	.
=37	=37	=37	=37	=37	=37
8GL	-tu-	2.dd	l'a-	4g]	.
8A	.	.	.	.	.
8B	.	.	.	4g	l'a-
8AJ	.	.	.	.	.
8GL	.	.	.	2b	-cu-
8F	.	.	.	.	.
8E	.	4.gg	-cu-	.	.
8DJ	.	.	.	.	.
1C	.	.	.	4cc	-ta
.	.	8gg	-ta	.	.
.	.	4gg	pun-	4g	pun-
.	.	2ee	-tu-	2cc	-tu-
=38	=38	=38	=38	=38	=38
0Gl	-ra.	0ddl	-ra.>	0bl	-ra.>
==	==	==	==	==	==
*-	*-	*-	*-	*-	*-
!!!system-decoration: [*]
!!!RDF**kern: i = editorial accidental
!!!RDF**kern: l = terminal long
!!!ENC: Emiliano Ricciardi
!!!END: 2018/03/14
!!!EED: Coluzzi, Seth
!!!EEV: 2018/07/13
!!!YEC: Copyright 2018 Emiliano Ricciardi, All Rights Reserved
!!!ONB: Translated from MusicXML on 2018/07/13 and edited by Craig Stuart Sapp
!!@@BEGIN:	VERSEDATA
!!@CATALOGNUM:	Tam1020441
!!@LAST_MODIFIED: 2020/07/12
!!@ACT:        I
!!@SCENE:      2
!!@VERSE:      441
!!@TITLE:      A l'ombra di un bel faggio Silvia e FIlli
!!@MANUSRC:	A-Am, A-Au, A-Br, A-CM, A-F, A-Ub
!!@PRINTSRC:	A-1580D, A-1580M, A-1581B, A-1581B<sub>bis</sub>, A-1581M, A-1581M<sub>bis</sub>, A-1581O, A-1581V, A-1582B, A-1583M, A-1583V, A-1584A, A-1585C, A-1585V, A-1585V<sub>bis</sub>, A-1588B, A-1589M, A-1589V, A-1590Mb, A-1590Mv, A-1591M, A-1591W, A-1592B, A-1596B, A-1596M, A-1599Bf, A-1599Bp, A-1600R, A-1601Bf, A-1601Bp, A-1602B, A-1603Bf, A-1603Bv, A-1603Z, A-1605R, A-1606Z, A-1608D, A-1608DP, A-1609Bf, A-1609Bv, A-1609Z, A-1611D, A-1614GT, A-1617D, A-1618B, A-1619D, A-1619I, A-1620V, A-1622D, A-1623A, A-1624M, A-1624S, A-1624T, A-1625U, A-1628U, A-1632D, A-1634R
!!@@BEGIN:	VERSES
!!@ABOUTIT:	  AMINTA
!!@ABOUTEN:	
!!@EDITOR:	Solerti, Angelo
!!@EDITION_TITLE: Opere minori in versi di Torquato Tasso. Edizione critica sugli autografi e sulle antiche stampe.
!!@EDITION_LOC:	Bologna
!!@EDITION_PUB:	Zanichelli
!!@EDITION_DATE:  1895
!!@EDITION_VOL:	3
!!@EDITION_PAGE:
!!@TRANSLATOR:	Emiliano Ricciardi and Amyrose McCue Gill
!!@VERSE:	
!!	A l'ombra d'un bel faggio Silvia e Filli
!!	Sedean un giorno, et io con loro insieme,
!!	Quando un'ape ingegnosa, che cogliendo
!!	S'en giva il mel per que' prati fioriti,
!!	Alle guancie di Fillide volando,
!!	A le guancie vermiglie come rosa,
!!	Le morse e le rimorse avidamente:
!!	Ch'a la similitudine ingannata
!!	Forse un fior le credette. All'hora Filli
!!	Cominciò a lamentarsi, impatiente
!!	De l'acuto dolor de la pontura:
!!@TVERSE:
!!	In the shade of a beautiful beech tree, Silvia and Phyllis
!!	Were sitting one day, and I together with them,
!!	When a clever bee, which was going about gathering
!!	Honey among those flowering meadows,
!!	To Phyllis’s cheeks flying,
!!	To her cheeks, red as a rose,
!!	Stung them and stung them again, greedily:
!!	For, tricked by their similarity,
!!	He perhaps thought them a flower. Then Phyllis
!!	Began to wail, distressed
!!	By the sharp pain of the sting:
!!@@END:		VERSES
!!@NEW_CRIT_ED:   Torquato Tasso, <i>Aminta. "Princeps."</i>, ed. Matteo Navone, vol. 9 of Commissione Nazionale per l'Edizione delle opere del Tasso. Studi e Testi (Alessandria: Edizioni dell'Orso, 2014).
!!@ATTRIBUTION_ABOUT:	
!!@DATING:	1573
!!@DEDICATEE:	
!!@COMMENTARY:
!!@@END:		VERSEDATA
!!@@BEGIN: SETTING
!!@CATALOGNUM:	Tam1020441a
!!@ACT:		I
!!@SCENE:		2
!!@VERSE:		441
!!@TITLE:		A l'ombra di un bel faggio Silvia e Filli
!!@COMPOSER:	Marotta, Erasmo
!!@PRINCEPSTITLE:	Aminta musicale. Il primo libro de madrigali a cinque voci
!!@PRINCEPSLOC:	Venice
!!@NORMLOC:	Venice
!!@NORMPUB:	Angelo Gardano
!!@NORMPUBSHORT:	Gardano
!!@PRINCEPSPUB:	Angelo Gardano
!!@PRINCEPSYEAR:	1600
!!@PRINCEPSRISM:	M 714
!!@OVOICES:	5
!!@EXTANTVOICES:	3
!!@OMENSURATION:	C
!!@OCLEFS:	G2,G2,C4
!!@OTIME:		
!!@OKEYSIG:	-
!!@FINAL:		(G)C
!!@TIMPEDITOR:	Coluzzi, Seth
!!@PARTS:		1 of 8
!!@REPRINTS:	
!!@@END: SETTING
